X:1
T:Christ Who Left His Home in Glory
T:Christ Who Left His Home in Glory
T:Abram Bowman Kolb
T:Abram Bowman Kolb, 1896
T:Public Domain Courtesy of the Cyber Hymnal™
C:Abram Bowman Kolb
Z:Public Domain
Z:Courtesy of the Cyber Hymnal™
%%score ( 1 2 ) ( 3 4 )
L:1/8
Q:1/4=112
M:4/4
K:F
V:1 treble 
V:2 treble 
V:3 bass 
V:4 bass 
V:1
 [Fc]2 [FA]2 [Af]3 [Ac] | (ed) (cd) [Ac]2 [FA]2 | [Fd]2 [Fc]2 (cB) [FA]2 | G2 [F=B]2 [Ec]4 | %4
w: 1.~Christ who left His|home * in * glo- ry,|And up- on * the|cross was slain,|
w: 2.~While the world in|peace * was * sleep- ing,|Ear- ly on * that|East- er day,|
w: 3.~Christ, our lov- ing|me- * di- * at- or,|Now with God * for|you and me|
 [Fc]2 [FA]2 [Af]3 [Ac] | (ed) (cd) [Ac]2 [FA]2 | [Fd]2 [Be]2 [Af]3 [FA] | [FA]2 [CG]2 [CF]4 || %8
w: Now is ris’n! Oh,|tell * the * sto- ry,|That the Sav- ior|lives a- gain.|
w: Came the faith- ful|wo- * men * weep- ing,|But the stone was|rolled a- way.|
w: In- ter- cedes, and|our * cre- * at- or|Hears and an- swers|ev- ery plea.|
"^Refrain" [Ac]6 [FA]2 | [Af]6 [Ac]2 | [Bc]6 [Bd]2 | [Ac]4 [FA]4 | [Ac]6 [FA]2 | %13
w: Hail Him!|Hail Him!|Tell the|sto- ry!|Hail! all|
w: |||||
w: |||||
 !fermata!f6 !fermata![^Gf]>[Gf] | [Af]3 [FA] [FA]2 [EG]2 | [CF]6 z2 |] %16
w: hail! Je- sus|lives for- ev- er-|more.|
w: |||
w: |||
V:2
 x8 | B2 B2 x4 | x4 E2 x2 | G2 x6 | x8 | B2 B2 x4 | x8 | x8 || x8 | x8 | x8 | x8 | x8 | %13
 (F2 ^G2 A2) x2 | x8 | x8 |] %16
V:3
 [F,A,]2 [F,C]2 [F,C]3 [F,C] | [G,C]2 [CE]2 [F,F]2 [F,C]2 | B,2 [A,C]2 [G,C]2 [F,C]2 | %3
w: ~ ~ ~ ~|~ ~ ~ ~|~ ~ ~ ~|
 [E,C]2 [D,G,]2 [C,G,]4 | [F,A,]2 [F,C]2 [F,C]3 [F,C] | [G,C]2 [CE]2 [F,F]2 [F,C]2 | %6
w: ~ ~ ~|~ ~ ~ ~|~ ~ ~ ~|
 B,2 [G,C]2 [F,C]3 [F,C] | [C,C]2 [C,B,]2 [F,A,]4 || [F,F]2 [F,F]>[F,F] [F,F]2 [F,C]2 | %9
w: ~ ~ ~ ~|~ ~ ~|Hail to the King, the|
 [F,C]2 [F,C]>[F,C] [F,C]2 [F,F]2 | [G,E]2 [G,E]>[G,E] [CE]2 [C,E]2 | [F,F]2 [F,F]>[F,F] [F,C]4 | %12
w: might- y Re- deem- er!|Hail Him who robbed the|grave of its power!|
 [F,F]2 [F,F]>[F,F] [F,F]2 [F,C]2 | [A,C]2 [G,C]2 !fermata![F,C]2 [=B,D]>[B,D] | %14
w: Tell ev- ery na- tion,|all is well, * *|
 C3 C [C,C]2 [C,B,]2 | [F,A,]6 z2 |] %16
w: ||
V:4
 x8 | x8 | B,2 x6 | x8 | x8 | x8 | B,2 x6 | x8 || x8 | x8 | x8 | x8 | x8 | x8 | C3 C x4 | x8 |] %16

